X:1
T:Lief, begheeft mij niet.
T:Pierre de la Rue
T:Lief, begheeft mij niet.
C:Pierre de la Rue
%%score [ 1 2 3 4 ]
L:1/8
Q:1/4=130
M:4/2
K:Eb
V:1 treble nm="Soprano" snm="S"
V:2 treble nm="Alto" snm="A"
V:3 treble-8 nm="Tenor" snm="T"
V:4 bass nm="Bass" snm="B"
V:1
 z16 | z16 | z16 | z16 | z8 c8 | c4 c4 B8 | c4 e8 d2 c2 | d8 G8 | z8 d8- | d8 e8 | d4 f8 e4 | %11
w: ||||Mijn|hert heeft al-|tijd _ ver- *|lan- ghen|Naer|_ u,|_ _ die|
 d4 B4 c8 | B8 B4 c4- | c2 B2 A2 G2 A8 | G8 z4 e4 | d4 c4 B4 A4 | G8 G4 A4- | A2 G2 c8 =B4 | c16 | %19
w: al- der- lief-|* ste mijn!|_ _ _ _ _|* Naer|u, _ _ die|al- der- lief-|* * * ste|mijn!|
 z16 | z16 | z16 | d8 d4 d4 | d4 e8 e4 | d8 c8 | B16 | z4 d4 d4 d4 | e4 d8 c2 B2 | c4 B4 f8 | %29
w: |||U lief- de|heeft mij ont-|fan- *|ghen,|U eij- ghen|vrij _ _ _|_ _ _|
 f12 e4- | e4 d8 c4 | d16 | z16 | z8 d8 | e4 e8 d4 | c4 B4 =A8 | G16 | z16 | z8 c8 | c4 c4 B8 | %40
w: wil- *|* * lick|sijn.||Voor|al de wee-|reld ghe- mee-|ne,||So|wie dat hoort|
 B8 c4 e4- | e4 d2 c2 d8 | G8 z8 | d8 e8 | d4 f8 e4 | d4 c2 B2 c8 | B8 B4 c4- | c2 B2 A2 G2 A8 | %48
w: of- * *|* * * te|siet|heb dij|mijn hert te~al-|lee- * * *|ne, al- lee-||
 G8 z4 e4 | d4 c4 B4 A4 | G8 G4 A4- | A2 G2 c8 B4 | c16- | c16 |] %54
w: ne, Daer-|om, _ lief, _|en be- gheeft|_ _ _ mij|niet.|_|
V:2
 F8 F4 F4 | C4 E4 F4 A4- | A4 G2 F2 G8 | C8 z8 | G8 G4 G4- | G4 F2 E2 F4 G4 | C8 G8 | z8 z4 G4- | %8
w: Mijn hert heeft|al- tijd ver- lan-||ghen,|Mijn hert heeft|_ al- * tijd ver-|lan- ghen|Naer|
 G4 G4 F6 G2 | =A4 B8 A4 | B6 A2 F2 G2 A4- | A4 G8 F4 | G12 F4- | F4 E8 D4 | E4 G4 F4 E4 | %15
w: _ u, die _|al- * der-|lief- * * * *|* * ste|mijn! Naer|_ u, die|al- * * der-|
 F4 C4 E4 F4 | B,8 C8 | z4 G8 G4- | G2 F2 E8 D2 C2 | B,16 | z16 | z4 G8 F4 | G4 D4 B8 | %23
w: lief- * * ste|mijn! _|U lief-||de||heeft _|mij _ ont-|
 B2 A2 G2 F2 E4 A4- | A4 G8 F4 | G16- | G16 | z16 | z8 F8 | B4 B8 A2 G2 | G16 | z4 G4 F4 G4 | %32
w: fan- * * * * *||ghen,|_||U|eij- ghen _ _|vrij|wil- * lick|
 D4 G4 F2 E2 D2 C2 | B,4 C8 =B,4 | C8 c6 B2 | A2 G2 G8 F4 | G8 z8 | z16 | G16- | G8 F6 E2 | %40
w: sijn. Voor al _ de _|wee- reld ghe-|mee- * *||ne,||So|_ wie _|
 G8 F4 E4 | G16 | G8 F6 G2 | B8 A4 A4- | A2 G2 F2 G2 A8 | G4 G6 F2 F4 | G12 F4- | F4 E8 D4 | %48
w: _ _ dat|hoort|of- te _|siet heb dij|_ _ _ _ _|mijn hert _ al-|lee- *||
 E4 G4 F4 E4 | F4 C4 E4 F4 | B,8 C8- | C4 G6 F2 E2 D2 | E12 D2 C2 | G16 |] %54
w: ne, Daer- om, _|lief, _ en be-|gheeft _|_ _ _ _ _|mij _ _|niet.|
V:3
 z16 | z16 | z16 | c8 c4 c4 | G4 B4 c4 e4- | e4 d2 c2 d4 G4 | z16 | d8 e8 | e8 d4 f4- | %9
w: |||Mijn hert heeft|al- tijd ver- lan-|* * * * ghen||Naer u,|die al- der-|
 f4 e2 d2 c8 | B8 z8 | z8 c8 | d8 d4 c4- | c4 B8 A4 | B4 e4 d4 c4 | B4 e6 c2 d4 | e8 e4 f4- | %17
w: * lief- * ste|mijn!|Naer|u, die al-|* * der-|lief- * * *|ste mijn! _ die|al- der- lief-|
 f4 e4 d8 | c16 | d8 d4 d4- | d4 e4 e8 | d4 d4 c8 | B16 | z16 | z16 | d8 d4 d4 | e4 d8 c2 B2 | %27
w: * * ste|mijn!|U lief- de|_ heeft mij|_ ont- fan-|ghen,|||U eij- ghen|vrij _ _ _|
 c4 B4 f8 | e8 d4 f4- | f2 e2 d8 c4 | d8 e8 | d16- | d16 | z16 | z16 | z8 d8 | e4 e8 e4 | %37
w: _ _ _|wil- * *|* * * lick|sijn. _|_||||Voor|al de wee-|
 c8 c4 c4 | G4 B4 c4 e4- | e4 d2 c2 d8 | G8 z8 | z8 d8 | e8 d4 f4- | f4 e2 d2 c8 | B8 z8 | z8 c8 | %46
w: reld ghe- mee-|ne, So wie _|_ dat _ hoort|_|heb|dij _ mijn|_ _ _ her-|te|mijn|
 d8 d4 c4- | c4 B8 A4 | B4 e4 d4 c4 | B4 e6 dc d4 | e4 g8 f4- | f2 g2 f2 e2 d8 | c16- | c16 |] %54
w: her- te~al- lee-||ne, Daer- om, _|lief, en _ _ be-|gheeft _ _|_ _ _ _ mij|niet.|_|
V:4
 z16 | z8 F,8 | F,4 F,4 C,4 E,4 | F,4 A,8 G,2 F,2 | G,8 C,8 | z8 z4 G,4 | A,4 C8 B,2 A,2 | B,8 C8 | %8
w: |Mijn|hert heeft al- tijd|ver- lan- * *|* ghen,|al-|tijd _ ver- *|lan- *|
 C,8 z8 | z16 | z16 | G,8 A,8 | G,4 B,8 A,4 | G,4 F,2 E,2 F,8 | E,8 z8 | z4 A,4 G,4 F,4 | %16
w: ghen|||Naer u,|die al- der-|lief- * * ste|mijn!|Naer u, die|
 E,6 D,2 C,4 F,4- | F,2 E,2 C,4 G,8 | C,8 z8 | G,8 G,4 G,4 | F,4 E,6 F,2 G,2 A,2 | B,4 G,4 A,8 | %22
w: al- der- lief- *|* * ste mijn!|_|U lief- de|heeft mij _ _ _|_ ont- fan-|
 G,8 G,6 A,2 | B,4 C8 C4 | B,4 G,4 A,8 | G,16- | G,16 | z16 | z8 B,8 | B,4 B,8 C4- | C4 B,4 C8 | %31
w: ghen, heeft _|mij _ ont-|fan- * *|ghen,|_||U|eij- ghen vrij|_ wil- lick|
 G,8 z4 G,4 | F,4 G,4 D,4 G,4- | G,4 F,2 E,2 D,8 | C,16 | z16 | z4 C,4 E,4 E,4 | F,4 A,8 G,2 F,2 | %38
w: sijn. Voor|al de wee- reld|_ ghe- * mee-|ne,||So wie dat|hoort _ of- *|
 G,8 C,8 | z16 | G,8 A,4 C4- | C4 B,2 A,2 B,4 B,4 | C8 z8 | z16 | z4 D8 C4 | B,4 G,4 A,8 | %46
w: te siet||So wie dat|_ _ _ hoort of-|siet||heb dij|mijn hert al-|
 G,4 B,8 A,4 | G,4 E,4 F,8 | E,8 z8 | z4 A,4 G,4 F,4 | E,6 D,2 C,4 F,4- | F,2 E,2 C,4 G,8 | C,16- | %53
w: lee- * *||ne,|Daer- om, _|lief, _ en be-|* * gheeft mij|niet.|
 C,16 |] %54
w: _|

